icons/Swift.svg

<svg xmlns="http://www.w3.org/2000/svg" width="256" height="256" fill="none" viewBox="0 0 256 256"><rect width="256" height="256" fill="#F05138" rx="60"/><path fill="#fff" d="M202.677 158.04C202.918 157.074 203.159 156.109 203.401 155.144C214.017 112.92 188.2 62.7333 144.287 36.4336C163.589 62.492 172.034 94.0999 164.554 121.606C163.83 124.019 163.106 126.432 162.141 128.845C161.176 128.121 159.97 127.397 158.281 126.673C158.281 126.673 114.609 99.6494 67.3176 52.1169C66.1112 50.9105 92.6522 89.9981 122.571 121.606C108.336 113.644 69.0066 84.9313 43.9133 62.2508C47.0499 67.3177 50.6692 72.3846 54.5297 76.9689C75.2799 103.51 102.545 136.083 135.118 161.176C112.196 175.171 79.8643 176.377 47.7738 161.176C39.8115 157.557 32.3318 152.973 25.3346 147.906C38.8464 169.621 59.8379 188.441 85.4137 199.54C115.815 212.569 146.217 211.846 168.656 199.781C168.656 199.781 168.897 199.781 168.897 199.54C169.862 199.058 170.828 198.334 171.793 197.851C182.65 192.302 203.883 186.752 215.465 208.95C218.843 214.017 224.875 185.063 202.677 158.04Z"/></svg>

<svg xmlns="http://www.w3.org/2000/svg" width="256" height="256" fill="none" viewBox="0 0 256 256"><rect width="256" height="256" fill="#F05138" rx="60"/><path fill="#fff" d="m202.68 158.04.72-2.9c10.62-42.22-15.2-92.4-59.11-118.7 19.3 26.05 27.74 57.66 20.26 85.17a85 85 0 0 1-2.4 7.24 18 18 0 0 0-3.87-2.18s-43.67-27.02-90.96-74.55c-1.2-1.2 25.33 37.88 55.25 69.49-14.23-7.97-53.56-36.68-78.66-59.36a126 126 0 0 0 10.62 14.72c20.75 26.54 48.02 59.11 80.59 84.2-22.92 14-55.26 15.2-87.35 0a131 131 0 0 1-22.44-13.26 134.4 134.4 0 0 0 60.08 51.63c30.4 13.03 60.8 12.3 83.25.24 0 0 .24 0 .24-.24.96-.48 1.93-1.2 2.9-1.69 10.85-5.55 32.08-11.1 43.66 11.1 3.38 5.07 9.41-23.89-12.78-50.91"/></svg>
